X:1
T:Joy to the world, the Lord is come
T:Joy to the world, the Lord is come (William Bennett Ninnis)
C:William Bennett Ninnis
Z:Carol no. 29 from p38 of
Z:Cornish Carols, Part II,
Z:ed. R. H. Heath,
Z:Truro: [c1891]
%%score [ 1 2 3 4 ]
L:1/8
M:4/4
K:G
V:1 treble nm="SOPRANO" snm="S."
V:2 treble nm="ALTO" snm="A."
V:3 treble-8 transpose=-12 nm="TENOR" snm="T."
V:4 bass nm="BASS" snm="B."
V:1
 (d2 Bc) d2 e2 | (d4 B4) | (c2 AB) c2 c2 | (B2 A2 B2) z2 | z4 z2 c2 | B2 A2 B2 B2 | c2 d2 e2 d2 | %7
w: He _ _ rules the|world, _|he _ _ rules the|world _ _|with|truth and grace, with|truth and grace, And|
w: Joy _ _ to the|world, _|joy _ _ to the|world, _ _|the|Lord is come, the|Lord is come, Let|
w: Joy _ _ to the|earth, _|joy _ _ to the|earth, _ _|the|sa- viour reigns, the|sa- viour reigns, Let|
 d2 d2 d2 ^c2 | d6 c2 | (B2 A2 G2) B2 | (c2 B2) A4 | G8 |:"^Duet."!p! A4 A2 B2 | c4 (B2 A2) | %14
w: makes the na- tions|prove, and|makes _ _ the|na- * tions|prove|The glo- ries|of his _|
w: earth re- ceive her|king, let|earth _ _ re-|ceive _ her|king.|Let ev- ’ry|heart pre- *|
w: men their songs em-|ploy, let|men _ _ their|songs _ em-|ploy,|While fields and|flocks, rocks, _|
 B4 (B2 c2) | d6!f! d2 | d2 e2 d2 e2 | d6 (cB) | A2 B2 c2 A2 | B6 z2 | z8 | z4 z2!p! d2 | %22
w: right- eous- *|ness, And|won- ders of his|love, and _|won- ders of his|love,||and|
w: pare him _|room, And|heav’n and na- ture|sing, and _|heav’n and na- ture|sing,||and|
w: hills and _|plains Re-|peat the sound- ing|joy, re- *|peat the sound- ing|joy,||re-|
 e2"^cresc." d2 c2 B2 | A6"^["!f!"^]" A2 | (B2 c2 d2) B2 | (c2 B2) A4 | G8 :| %27
w: won- ders of his|love, and|won- * * ders|of _ his|love.|
w: heav’n and na- ture|sing, and|heav’n _ _ and|na- * ture|sing.|
w: peat the sound- ing|joy, re-|peat _ _ the|sound- * ing|joy.|
V:2
 G2 z2 z4 | D2 E>F G4 | F2 z2 z4 | D2 D>D D2 z2 | z4 z2 A2 | G2 F2 G2 G2 | G2 G2 G2 G2 | %7
w: He,|he rules the world,|he,|he rules the world|with|truth and grace, with|truth and grace, And|
w: Joy,|joy to the world,|joy,|joy to the world,|the|Lord is come, the|Lord is come, Let|
w: Joy,|joy to the earth,|joy,|joy to the earth,|the|sa- viour reigns, the|sa- viour reigns, Let|
 F2 G2 F2 E2 | F6 D2 | (D2 F2 G2) D2 | E4 F4 | G8 |:!p! F4 F2 G2 | A4 (G2 F2) | G4 (G2 A2) | %15
w: makes the na- tions|prove, and|makes _ _ the|na- tions|prove|The glo- ries|of his _|right- eous- *|
w: earth re- ceive her|king, let|earth _ _ re-|ceive her|king.|Let ev- ’ry|heart pre- *|pare him _|
w: men their songs em-|ploy, let|men _ _ their|songs em-|ploy,|While fields and|flocks, rocks, _|hills and _|
 B6 z2 | z8 | z4 z2!f! D2 | F2 G2 A2 F2 | G6!p! G2 | F2 E2 D2 E2 | (D3 C B,2) G2 | %22
w: ness,||And|won- ders of his|love, and|won- ders of his|love, _ _ and|
w: room,||And|heav’n and na- ture|sing, and|heav’n and na- ture|sing, _ _ and|
w: plains||Re-|peat the sound- ing|joy, re-|peat the sound- ing|joy, _ _ re-|
 G2"^cresc." G2 F2 G2 | (F3 G A2)"^["!f!"^]" F2 | (G2 A2 B2) G2 | G4 F4 | D8 :| %27
w: won- ders of his|love, _ _ and|won- * * ders|of his|love.|
w: heav’n and na- ture|sing, _ _ and|heav’n _ _ and|na- ture|sing.|
w: peat the sound- ing|joy, _ _ re-|peat _ _ the|sound- ing|joy.|
V:3
 (B2 GA) B2 c2 | (B4 G4) | (A2 FG) A2 A2 | (G2 F2 G2) z2 | z8 | z4 z2 d2 | c2 B2 c2 B2 | %7
w: He _ _ rules the|world, _|he _ _ rules the|world _ _||with|truth and grace, And|
w: Joy _ _ to the|world, _|joy _ _ to the|world, _ _||the|Lord is come, Let|
w: Joy _ _ to the|earth, _|joy _ _ to the|earth, _ _||the|sa- viour reigns, Let|
 A2 B2 A2 A2 | A6 A2 | (G2 d2 B2) G2 | G4 c4 | B8 |: z8 | z8 | z8 | z4 z2!f! B2 | B2 c2 B2 c2 | %17
w: makes the na- tions|prove, and|makes _ _ the|na- tions|prove||||And|won- ders of his|
w: earth re- ceive her|king, let|earth _ _ re-|ceive her|king.||||And|heav’n and na- ture|
w: men their songs em-|ploy, let|men _ _ their|songs em-|ploy,||||Re-|peat the sound- ing|
 (B8 | d8- | d6) z2 | z8 | z8 | z4 z2 G2 | d2 d2 d2 d2 |"^["!f!"^]" d6 d2 | (e2 d2) d4 | B8 :| %27
w: love,|_||||and|won- ders of, and|won- ders|of _ his|love.|
w: sing,|_||||and|heav’n and na- ture|sing, and|na- * ture|sing.|
w: joy,|_||||re-|peat the sound- ing|joy, the|sound- * ing|joy,|
V:4
 G,2 z2 z4 | G,2 G,>G, G,4 | D,2 z2 z4 | D,2 D,>D, G,2 D2 | B,2 G,2 D,2 z2 | D,2 z2 G,2 =F,2 | %6
w: He,|he rules the world,|he,|he rules the world with|truth and grace,|grace, grace, with|
w: Joy,|joy to the world,|joy,|joy to the world, the|Lord is come,|come, come, the|
w: Joy,|joy to the earth,|joy,|joy to the earth, the|sa- viour reigns,|reigns, reigns, the|
 E,2 D,2 C,2 D,2 | D,2 G,2 A,2 A,,2 | D,6 F,2 | (G,2 D,2 E,2) G,2 | C,4 D,4 | G,,8 |: %12
w: truth and grace, And|makes the na- tions|prove, and|makes _ _ the|na- tions|prove|
w: Lord is come, Let|earth re- ceive her|king, let|earth _ _ re-|ceive her|king.|
w: sa- viour reigns, Let|men their songs em-|ploy, let|men _ _ their|songs em-|ploy,|
"^Org."!p! D,4 D,4 | D,4 D,4 | G,4 G,4 | G,6 z2 | z4 z2!f! G,2 | G,2 G,2 G,2 G,2 | %18
w: ||||And|won- ders of his|
w: ||||And|heav’n and na- ture|
w: ||||Re-|peat the sound- ing|
 (D,2 G,2 F,2 D,2 | G,6) z2 | %20
w: love, _ _ _|_|
w: sing, _ _ _|_|
w: joy, _ _ _|_|
"^Notes:This carol is given in short score in R. H. Heath’s Cornish Carols, Part II, attributed to ‘W. B. Ninnis’.In that source, the first verse of text is underlaid between the staves, with additional fragments of this verse above andbelow the staves to indicate the word fit for the different parts. A further two verses of text are printed after the music,and dynamics are given above or between the staves, apparently applying to all voice parts.In this edition, the voice parts have been split out to open score, all three verses of text have been underlaid in full, anddynamic markings have been copied across to all parts to which they apply." z4 z2!p! C2 | %21
w: and|
w: and|
w: re-|
 B,2 A,2 G,2 B,2 | (C2"^cresc." B,2 A,2) G,2 | D,2 D,2 F,2 D,2 |"^["!f!"^]" G,6 G,2 | %25
w: won- ders of his|love, _ _ and|won- ders of, and|won- ders|
w: heav’n and na- ture|sing, _ _ and|heav’n and na- ture|sing, and|
w: peat the sound- ing|joy, _ _ re-|peat the sound- ing|joy, the|
 (C,2 G,,2) D,4 | G,,8 :| %27
w: of _ his|love.|
w: na- * ture|sing.|
w: sound- * ing|joy.|

